src/lib/packages/icons/src/assets/line/calendar-times.svg

<svg xmlns="http://www.w3.org/2000/svg" width="24" height="24" fill="none"><path fill="currentColor" d="M18 3.75h-1.25V3a.75.75 0 0 0-1.5 0v.75h-6.5V3a.75.75 0 0 0-1.5 0v.75H6c-2.418 0-3.75 1.332-3.75 3.75V18c0 2.418 1.332 3.75 3.75 3.75h12c2.418 0 3.75-1.332 3.75-3.75V7.5c0-2.418-1.332-3.75-3.75-3.75ZM6 5.25h1.25V6a.75.75 0 0 0 1.5 0v-.75h6.5V6a.75.75 0 0 0 1.5 0v-.75H18c1.577 0 2.25.673 2.25 2.25v.75H3.75V7.5c0-1.577.673-2.25 2.25-2.25Zm12 15H6c-1.577 0-2.25-.673-2.25-2.25V9.75h16.5V18c0 1.577-.673 2.25-2.25 2.25Zm-3.47-6.72L13.06 15l1.47 1.47a.75.75 0 0 1-1.06 1.061L12 16.061l-1.47 1.47a.748.748 0 0 1-1.06 0 .75.75 0 0 1 0-1.061L10.94 15l-1.47-1.47a.75.75 0 1 1 1.061-1.061l1.47 1.47 1.47-1.47a.75.75 0 1 1 1.059 1.061Z"/></svg>

<svg width="24" height="24" viewBox="0 0 24 24" fill="none" xmlns="http://www.w3.org/2000/svg">
<path d="M18 3.75H16.75V3C16.75 2.586 16.414 2.25 16 2.25C15.586 2.25 15.25 2.586 15.25 3V3.75H8.75V3C8.75 2.586 8.414 2.25 8 2.25C7.586 2.25 7.25 2.586 7.25 3V3.75H6C3.582 3.75 2.25 5.082 2.25 7.5V18C2.25 20.418 3.582 21.75 6 21.75H18C20.418 21.75 21.75 20.418 21.75 18V7.5C21.75 5.082 20.418 3.75 18 3.75ZM6 5.25H7.25V6C7.25 6.414 7.586 6.75 8 6.75C8.414 6.75 8.75 6.414 8.75 6V5.25H15.25V6C15.25 6.414 15.586 6.75 16 6.75C16.414 6.75 16.75 6.414 16.75 6V5.25H18C19.577 5.25 20.25 5.923 20.25 7.5V8.25H3.75V7.5C3.75 5.923 4.423 5.25 6 5.25ZM18 20.25H6C4.423 20.25 3.75 19.577 3.75 18V9.75H20.25V18C20.25 19.577 19.577 20.25 18 20.25ZM14.53 13.53L13.0601 15L14.53 16.47C14.823 16.763 14.823 17.238 14.53 17.531C14.384 17.677 14.192 17.751 14 17.751C13.808 17.751 13.616 17.678 13.47 17.531L12 16.061L10.53 17.531C10.384 17.677 10.192 17.751 10 17.751C9.808 17.751 9.61597 17.678 9.46997 17.531C9.17697 17.238 9.17697 16.763 9.46997 16.47L10.9399 15L9.46997 13.53C9.17697 13.237 9.17697 12.762 9.46997 12.469C9.76297 12.176 10.238 12.176 10.531 12.469L12.001 13.939L13.4709 12.469C13.7639 12.176 14.239 12.176 14.532 12.469C14.825 12.762 14.823 13.237 14.53 13.53Z" fill="currentColor"/>
</svg>
